X:1
T:Æ livstyk'
R:Reel
R:Engelska
O:Vejle, Danmark
B:Spelmansmusik
M:2/4
L:1/16
K:D
"D"DFAF DFAF|"G"EGBG EGBG|"A"E2C2 C2E2|"D"E2D2 D2z2:|
|:"Em"G3F "A"EFGE|"D"A2F2 "Bm"D4|"G"E2F2 "Em"G3E|"A7"D2C2 "D"D2z2:|

